src/assets/flags/dz.svg

<?xml version="1.0" encoding="UTF-8"?>
<svg xmlns="http://www.w3.org/2000/svg" xmlns:xlink="http://www.w3.org/1999/xlink" width="25px" height="px" viewBox="0 0 25 19" version="1.1">
<g id="surface1">
<path style=" stroke:none;fill-rule:nonzero;fill:rgb(100%,100%,100%);fill-opacity:1;" d="M 12.5 0 L 25 0 L 25 19 L 12.5 19 Z M 12.5 0 "/>
<path style=" stroke:none;fill-rule:nonzero;fill:rgb(0%,38.431373%,20%);fill-opacity:1;" d="M 0 0 L 12.5 0 L 12.5 19 L 0 19 Z M 0 0 "/>
<path style=" stroke:none;fill-rule:nonzero;fill:rgb(82.352942%,6.27451%,20.392157%);fill-opacity:1;" d="M 16.5625 7.125 C 15.5 5.261719 13.339844 4.355469 11.289062 4.910156 C 9.242188 5.46875 7.816406 7.351562 7.816406 9.5 C 7.816406 11.648438 9.242188 13.53125 11.289062 14.089844 C 13.339844 14.644531 15.5 13.738281 16.5625 11.875 C 15.566406 13.132812 13.894531 13.621094 12.394531 13.085938 C 10.890625 12.550781 9.886719 11.113281 9.886719 9.5 C 9.886719 7.886719 10.890625 6.449219 12.394531 5.914062 C 13.894531 5.378906 15.566406 5.867188 16.5625 7.125 M 16.71875 9.5 L 12.5 8.105469 L 15.125 11.75 L 15.125 7.25 L 12.5 10.894531 Z M 16.71875 9.5 "/>
</g>
</svg>

<svg xmlns="http://www.w3.org/2000/svg" width="25" height="px" viewBox="0 0 25 19"><path d="M12.5 0H25v19H12.5Zm0 0" style="stroke:none;fill-rule:nonzero;fill:#fff;fill-opacity:1"/><path d="M0 0h12.5v19H0Zm0 0" style="stroke:none;fill-rule:nonzero;fill:#006233;fill-opacity:1"/><path d="M16.563 7.125a4.665 4.665 0 0 0-5.274-2.215C9.242 5.47 7.816 7.352 7.816 9.5s1.426 4.031 3.473 4.59a4.665 4.665 0 0 0 5.274-2.215 3.72 3.72 0 0 1-4.168 1.21A3.8 3.8 0 0 1 9.887 9.5a3.8 3.8 0 0 1 2.508-3.586 3.72 3.72 0 0 1 4.168 1.211m.156 2.375L12.5 8.105l2.625 3.645v-4.5L12.5 10.895Zm0 0" style="stroke:none;fill-rule:nonzero;fill:#d21034;fill-opacity:1"/></svg>
